source/images/icons/icon-editorial/compostage.svg

<?xml version="1.0" encoding="UTF-8"?>
<svg width="80px" height="80px" viewBox="0 0 80 80" version="1.1" xmlns="http://www.w3.org/2000/svg" xmlns:xlink="http://www.w3.org/1999/xlink">
    <!-- Generator: Sketch 55.2 (78181) - https://sketchapp.com -->
    <title>Illustrative Icons/Compostage</title>
    <desc>Created with Sketch.</desc>
    <g id="Illustrative-Icons/Compostage" stroke="none" stroke-width="1" fill="none" fill-rule="evenodd">
        <path d="M50.3333334,17 L50.3333334,12 C50.3333334,9.23857625 48.0947571,7 45.3333334,7 L35.3333334,7 C32.5719096,7 30.3333333,9.23857625 30.3333333,12 L30.3333333,17 L27,17 C26.0795254,17 25.3333333,17.7461921 25.3333333,18.6666667 C25.3333333,19.5871413 26.0795254,20.3333333 27,20.3333333 L33.6666667,20.3333333 L33.6666667,12 C33.6666667,11.0795254 34.4128588,10.3333333 35.3333334,10.3333333 L45.3333334,10.3333333 C46.253808,10.3333333 47,11.0795254 47,12 L47,20.3333333 L60.3333334,20.3333333 L60.3333334,70.3333334 C60.3333334,71.253808 59.5871413,72 58.6666667,72 L22,72 C21.0795254,72 20.3333333,71.253808 20.3333333,70.3333334 L20.3333333,27 C20.3333333,26.0795254 19.5871413,25.3333334 18.6666667,25.3333334 C17.7461921,25.3333334 17,26.0795254 17,27 L17,70.3333334 C17,73.0947572 19.2385763,75.3333334 22,75.3333334 L58.6666667,75.3333334 C61.4280905,75.3333334 63.6666667,73.0947572 63.6666667,70.3333334 L63.6666667,17 L50.3333334,17 Z M47,35.5433334 C46.4203332,35.5438816 45.882586,35.8455754 45.58,36.34 L41.58,29.585 C41.2798928,29.0788343 40.7351122,28.7683334 40.1466667,28.7683334 L40.1466667,28.7683334 C39.5572035,28.7694811 39.0121906,29.0819129 38.7133334,29.59 L32.2466667,40.57 C31.9328334,41.0835683 31.9202698,41.7264447 32.2137981,42.2518825 C32.5073263,42.7773202 33.0613426,43.103685 33.663206,43.1057124 C34.2650694,43.1077399 34.8212718,42.785115 35.1183334,42.2616667 L40.1533334,33.7116667 L42.5833334,37.8333334 C41.8765414,37.9201294 41.3029709,38.4463859 41.1557964,39.1431126 C41.0086218,39.8398393 41.3203589,40.5531057 41.9316667,40.9183334 L46.1366667,43.43 C46.653372,43.7319521 47.2916186,43.7365486 47.8126193,43.44207 C48.33362,43.1475913 48.6588636,42.5984134 48.6666667,42 L48.6666667,37.21 C48.6666667,36.2895255 47.9204746,35.5433334 47,35.5433334 L47,35.5433334 Z M56.775,59.5000001 C57.0713558,58.9890782 57.0751601,58.3594658 56.785,57.8450001 L50.5433334,46.775 C50.0834878,45.9901511 49.0792729,45.7189768 48.2868658,46.1656724 C47.4944588,46.612368 47.2065786,47.6119219 47.64,48.4116667 L52.49,57.0133334 L47.7116667,57.0400001 C47.9932622,56.3862398 47.8285747,55.6257997 47.3017288,55.1471225 C46.7748828,54.6684454 46.0021825,54.5772017 45.3783334,54.9200001 L41.0866667,57.2800001 C40.5699334,57.575736 40.2478566,58.1224332 40.2394796,58.7177529 C40.2314245,59.3130726 40.5382916,59.86845 41.0466667,60.1783334 L45.18,62.5983334 C45.8236486,62.9731876 46.6378822,62.8754569 47.1745405,62.358933 C47.7111988,61.842409 47.8399793,61.0325057 47.49,60.3750001 L55.3433334,60.3300001 C55.9339045,60.3265288 56.4785384,60.0107807 56.775,59.5000001 L56.775,59.5000001 Z M25.3333333,60.3333335 L33.6666667,60.3333335 C34.5871413,60.3333335 35.3333334,59.5871413 35.3333334,58.6666667 C35.3333334,57.7461921 34.5871413,57.0000001 33.6666667,57.0000001 L28.18,57.0000001 L30.4866667,52.8916667 C30.7982444,53.3071478 31.2856897,53.5536435 31.805,53.5583334 L31.8333334,53.5583334 C32.7460537,53.5583991 33.4890474,52.8243213 33.5,51.9116667 L33.5583334,47.0133334 C33.5541202,46.4192007 33.2370114,45.8712931 32.7239482,45.5716642 C32.2108849,45.2720352 31.5778666,45.2650686 31.0583334,45.5533334 L26.9183333,47.9600001 C26.2775394,48.334071 25.9612002,49.0867047 26.1423398,49.8062423 C26.3234794,50.5257799 26.9584706,51.0389214 27.7,51.0650001 L23.88,57.8500001 C23.5898709,58.366147 23.5953643,58.9974717 23.8944311,59.5084918 C24.1934979,60.0195119 24.7412333,60.3334978 25.3333333,60.3333335 Z M18.6666667,20.3333333 C19.5871413,20.3333333 20.3333333,19.5871413 20.3333333,18.6666667 C20.3333333,17.7461921 19.5871413,17 18.6666667,17 C17.7461921,17 17,17.7461921 17,18.6666667 C17,19.5871413 17.7461921,20.3333333 18.6666667,20.3333333 Z" id="Shape-color" fill="#ADB5BD"></path>
    </g>
</svg>

<svg width="80" height="80">
    <title>
        Illustrative Icons/Compostage
    </title>
    <path d="M50.333 17v-5a5 5 0 0 0-5-5h-10a5 5 0 0 0-5 5v5H27a1.667 1.667 0 0 0 0 3.333h6.667V12c0-.92.746-1.667 1.666-1.667h10c.92 0 1.667.747 1.667 1.667v8.333h13.333v50c0 .92-.746 1.667-1.666 1.667H22c-.92 0-1.667-.746-1.667-1.667V27A1.667 1.667 0 1 0 17 27v43.333a5 5 0 0 0 5 5h36.667a5 5 0 0 0 5-5V17H50.333zM47 35.543c-.58 0-1.117.303-1.42.797l-4-6.755a1.666 1.666 0 0 0-1.433-.817 1.667 1.667 0 0 0-1.434.822l-6.466 10.98a1.667 1.667 0 1 0 2.871 1.692l5.035-8.55 2.43 4.121a1.667 1.667 0 0 0-.651 3.085l4.205 2.512a1.682 1.682 0 0 0 2.53-1.43v-4.79c0-.92-.747-1.667-1.667-1.667zM56.775 59.5c.296-.51.3-1.14.01-1.655l-6.242-11.07a1.667 1.667 0 0 0-2.903 1.637l4.85 8.601-4.778.027a1.667 1.667 0 0 0-2.334-2.12l-4.291 2.36a1.684 1.684 0 0 0-.04 2.898l4.133 2.42a1.667 1.667 0 0 0 2.31-2.223l7.853-.045a1.667 1.667 0 0 0 1.432-.83zm-31.442.833h8.334a1.667 1.667 0 0 0 0-3.333H28.18l2.307-4.108c.311.415.799.662 1.318.666h.028c.913 0 1.656-.734 1.667-1.646l.058-4.899a1.683 1.683 0 0 0-2.5-1.46l-4.14 2.407a1.667 1.667 0 0 0 .782 3.105l-3.82 6.785a1.667 1.667 0 0 0 1.453 2.483zm-6.666-40a1.667 1.667 0 1 0 0-3.333 1.667 1.667 0 0 0 0 3.333z" fill="#ADB5BD" fill-rule="evenodd"/>
</svg>
